src/assets/icons/movie.svg

<svg height="23" viewBox="0 0 30 23" width="30" xmlns="http://www.w3.org/2000/svg"><path d="m411.615 828h-25.23c-.632541 0-1.239175.258584-1.68645.718866-.447274.460282-.69855 1.084559-.69855 1.735496v18.091276c0 1.355507 1.067801 2.454362 2.385 2.454362h25.23c1.317199 0 2.385-1.098855 2.385-2.454362v-18.091276c0-1.355507-1.067801-2.454362-2.385-2.454362zm-22.620291 18.613596c0 .213405-.170558.386404-.380952.386404h-3.232805c-.210394 0-.380952-.172999-.380952-.386404v-2.227192c0-.213405.170558-.386404.380952-.386404h3.238096c.210394 0 .380952.172999.380952.386404zm0-6c0 .213405-.170558.386404-.380952.386404h-3.232805c-.210394 0-.380952-.172999-.380952-.386404v-2.227192c0-.213405.170558-.386404.380952-.386404h3.238096c.210394 0 .380952.172999.380952.386404zm0-6.000693c0 .213788-.170558.387097-.380952.387097h-3.232805c-.210394 0-.380952-.173309-.380952-.387097v-2.236559c.005731-.209577.174622-.376425.380952-.376344h3.238096c.210394 0 .380952.173309.380952.387097zm13.575244 6.206241-6.232385 4.043874c-.272764.177831-.612991.182845-.890135.013119-.277144-.169727-.448161-.487835-.447433-.832263v-8.087748c-.000728-.344428.170289-.662536.447433-.832263.277144-.169726.617371-.164712.890135.013119l6.232385 4.043874c.266705.172134.430047.483264.430047.819144s-.163342.64701-.430047.819144zm10.430047 5.794452c0 .213405-.170784.386404-.381457.386404h-3.237086c-.210673 0-.381457-.172999-.381457-.386404v-2.227192c0-.213405.170784-.386404.381457-.386404h3.237086c.210673 0 .381457.172999.381457.386404zm0-6c0 .213405-.170784.386404-.381457.386404h-3.237086c-.210673 0-.381457-.172999-.381457-.386404v-2.227192c0-.213405.170784-.386404.381457-.386404h3.237086c.210673 0 .381457.172999.381457.386404zm0-5.99931c0 .213024-.170784.385714-.381457.385714h-3.237086c-.210673 0-.381457-.17269-.381457-.385714v-2.228572c0-.213024.170784-.385714.381457-.385714h3.237086c.210673 0 .381457.17269.381457.385714z" fill="#f00" transform="translate(-384 -828)"/></svg>

<?xml version="1.0" encoding="UTF-8"?>
<svg width="30px" height="23px" viewBox="0 0 30 23" version="1.1" xmlns="http://www.w3.org/2000/svg" xmlns:xlink="http://www.w3.org/1999/xlink">
    <title>Shape@1,5x</title>
    <g id="Page-1" stroke="none" stroke-width="1" fill="none" fill-rule="evenodd">
        <g id="Guide" transform="translate(-384.000000, -828.000000)" fill="#FF0000" fill-rule="nonzero">
            <path d="M411.615,828 L386.385,828 C385.752459,828 385.145825,828.258584 384.69855,828.718866 C384.251276,829.179148 384,829.803425 384,830.454362 L384,848.545638 C384,849.901145 385.067801,851 386.385,851 L411.615,851 C412.932199,851 414,849.901145 414,848.545638 L414,830.454362 C414,829.098855 412.932199,828 411.615,828 Z M388.994709,846.613596 C388.994709,846.827001 388.824151,847 388.613757,847 L385.380952,847 C385.170558,847 385,846.827001 385,846.613596 L385,844.386404 C385,844.172999 385.170558,844 385.380952,844 L388.619048,844 C388.829442,844 389,844.172999 389,844.386404 L388.994709,846.613596 Z M388.994709,840.613596 C388.994709,840.827001 388.824151,841 388.613757,841 L385.380952,841 C385.170558,841 385,840.827001 385,840.613596 L385,838.386404 C385,838.172999 385.170558,838 385.380952,838 L388.619048,838 C388.829442,838 389,838.172999 389,838.386404 L388.994709,840.613596 Z M388.994709,834.612903 C388.994709,834.826691 388.824151,835 388.613757,835 L385.380952,835 C385.170558,835 385,834.826691 385,834.612903 L385,832.376344 C385.005731,832.166767 385.174622,831.999919 385.380952,832 L388.619048,832 C388.829442,832 389,832.173309 389,832.387097 L388.994709,834.612903 Z M402.569953,840.819144 L396.337568,844.863018 C396.064804,845.040849 395.724577,845.045863 395.447433,844.876137 C395.170289,844.70641 394.999272,844.388302 395,844.043874 L395,835.956126 C394.999272,835.611698 395.170289,835.29359 395.447433,835.123863 C395.724577,834.954137 396.064804,834.959151 396.337568,835.136982 L402.569953,839.180856 C402.836658,839.35299 403,839.66412 403,840 C403,840.33588 402.836658,840.64701 402.569953,840.819144 Z M413,846.613596 C413,846.827001 412.829216,847 412.618543,847 L409.381457,847 C409.170784,847 409,846.827001 409,846.613596 L409,844.386404 C409,844.172999 409.170784,844 409.381457,844 L412.618543,844 C412.829216,844 413,844.172999 413,844.386404 L413,846.613596 Z M413,840.613596 C413,840.827001 412.829216,841 412.618543,841 L409.381457,841 C409.170784,841 409,840.827001 409,840.613596 L409,838.386404 C409,838.172999 409.170784,838 409.381457,838 L412.618543,838 C412.829216,838 413,838.172999 413,838.386404 L413,840.613596 Z M413,834.614286 C413,834.82731 412.829216,835 412.618543,835 L409.381457,835 C409.170784,835 409,834.82731 409,834.614286 L409,832.385714 C409,832.17269 409.170784,832 409.381457,832 L412.618543,832 C412.829216,832 413,832.17269 413,832.385714 L413,834.614286 Z" id="Shape"></path>
        </g>
    </g>
</svg>
